public/logos/oracle.svg

<svg fill="none" height="24" viewBox="0 0 180 24" width="180" xmlns="http://www.w3.org/2000/svg"><path clip-rule="evenodd" d="m77.8775 14.9776h11.8716l-6.2709-9.97247-11.5284 18.01167h-5.2425l14.0213-21.6097c.6204-.874893 1.6328-1.39934847 2.7163-1.40701487 1.0836-.00766639 2.1033.50284187 2.7365 1.36905487l14.0606 21.64776h-5.2429l-2.4693-4.0274h-12.0117l-2.6171-4.0119zm54.4965 4.0119v-18.771154h-4.456v20.620054c-.001.5792.238 1.1334.663 1.5344.426.4292 1.01.6701 1.619.6672h20.253l2.642-4.0273h-20.744zm-73.6666-3.3525c4.3233 0 7.8286-3.4514 7.8286-7.70922 0-4.25808-3.5053-7.709526-7.8286-7.709526h-19.4746v22.798546h4.4483v-18.76353h14.7536c2.0692 0 3.7466 1.65216 3.7466 3.68985s-1.6775 3.68988-3.7466 3.68988h-12.5493l13.2893 11.3838h6.4576l-8.927-7.3798zm-46.8318 7.3798h13.4531c6.2738-.1601 11.2752-5.2146 11.2752-11.3953 0-6.1804-5.0014-11.235509-11.2752-11.395487h-13.4531c-3.1211-.079805-6.14206 1.085397-8.37817 3.231247-2.23601 2.1452-3.49743 5.08956-3.49743 8.16424 0 3.0744 1.26142 6.0188 3.49743 8.1645 2.23611 2.1453 5.25707 3.3106 8.37817 3.2308zm13.1491-4.0119h-12.8528c-4.04253-.1284-7.25211-3.3928-7.25211-7.3758 0-3.98303 3.20958-7.24762 7.25211-7.37583h12.8528c2.0281-.06438 3.9962.68407 5.4541 2.07427 1.4581 1.39011 2.281 3.30338 2.281 5.30156 0 1.9986-.8229 3.9114-2.281 5.3015-1.458 1.3901-3.426 2.1386-5.4541 2.0743zm84.5093 4.0119h13.734l2.602-4.0119h-16.031c-2.029.0643-3.997-.6842-5.455-2.0743s-2.281-3.3029-2.281-5.3015c0-1.99818.823-3.91145 2.281-5.30156 1.458-1.3902 3.426-2.13865 5.455-2.07427h13.047l2.633-4.027257h-15.985c-3.12-.079805-6.141 1.085397-8.377 3.231247-2.2366 2.1452-3.4979 5.08956-3.4979 8.16424 0 3.0744 1.2613 6.0188 3.4979 8.1645 2.236 2.1453 5.257 3.3106 8.377 3.2308zm54.427-4.0119-.007-.0078h16.046l-2.609 4.0121h-13.733c-6.274-.1601-11.277-5.2147-11.277-11.3955 0-6.18036 5.003-11.235468 11.277-11.395446h15.968l-2.61 4.027356h-13.055c-3.355-.00379-6.303 2.19055-7.214 5.36989h21.641l-2.618 4.0196h-19.023c.914 3.1778 3.861 5.3712 7.214 5.3698z" fill="#fff" fill-rule="evenodd"/></svg>

<svg width="180" height="24" viewBox="0 0 180 24" fill="none" xmlns="http://www.w3.org/2000/svg">
<path fill-rule="evenodd" clip-rule="evenodd" d="M77.8775 14.9776H89.7491L83.4782 5.00513L71.9498 23.0168H66.7073L80.7286 1.4071C81.349 0.532207 82.3614 0.00775153 83.4449 8.51342e-05C84.5285 -0.00758126 85.5482 0.502927 86.1814 1.36914L100.242 23.0169H94.9991L92.5298 18.9895H80.5181L77.901 14.9776H77.8775ZM132.374 18.9895V0.218346H127.918V20.8384C127.917 21.4176 128.156 21.9718 128.581 22.3728C129.007 22.802 129.591 23.0429 130.2 23.04H150.453L153.095 19.0127H132.351L132.374 18.9895ZM58.7074 15.637C63.0307 15.637 66.536 12.1856 66.536 7.92778C66.536 3.6697 63.0307 0.218254 58.7074 0.218254H39.2328V23.0168H43.6811V4.25327H58.4347C60.5039 4.25327 62.1813 5.90543 62.1813 7.94312C62.1813 9.98081 60.5038 11.633 58.4347 11.633H45.8854L59.1747 23.0168H65.6323L56.7053 15.637H58.7074ZM11.8756 23.0168H25.3287C31.6025 22.8567 36.6039 17.8022 36.6039 11.6215C36.6039 5.4411 31.6025 0.385991 25.3287 0.226013H11.8756C8.7545 0.146208 5.73354 1.31141 3.49743 3.45726C1.26142 5.60246 0 8.54682 0 11.6215C0 14.6959 1.26142 17.6403 3.49743 19.786C5.73354 21.9313 8.7545 23.0966 11.8756 23.0168ZM25.0247 19.0049H12.1719C8.12937 18.8765 4.91979 15.6121 4.91979 11.6291C4.91979 7.64607 8.12937 4.38148 12.1719 4.25327H25.0247C27.0528 4.18889 29.0209 4.93734 30.4788 6.32754C31.9369 7.71765 32.7598 9.63092 32.7598 11.6291C32.7598 13.6277 31.9369 15.5405 30.4788 16.9306C29.0208 18.3207 27.0528 19.0692 25.0247 19.0049ZM109.534 23.0168H123.268L125.87 19.0049H109.839C107.81 19.0692 105.842 18.3207 104.384 16.9306C102.926 15.5405 102.103 13.6277 102.103 11.6291C102.103 9.63092 102.926 7.71765 104.384 6.32754C105.842 4.93734 107.81 4.18889 109.839 4.25327H122.886L125.519 0.226013H109.534C106.414 0.146208 103.393 1.31141 101.157 3.45726C98.9204 5.60246 97.6591 8.54682 97.6591 11.6215C97.6591 14.6959 98.9204 17.6403 101.157 19.786C103.393 21.9313 106.414 23.0966 109.534 23.0168ZM163.961 19.0049L163.954 18.9971H180L177.391 23.0092H163.658C157.384 22.8491 152.381 17.7945 152.381 11.6137C152.381 5.43334 157.384 0.378232 163.658 0.218254H179.626L177.016 4.24561H163.961C160.606 4.24182 157.658 6.43616 156.747 9.6155H178.388L175.77 13.6351H156.747C157.661 16.8129 160.608 19.0063 163.961 19.0049Z" fill="white"/>
</svg>
